app/images/icon/qualities/3.svg

<svg width="79" height="99" viewBox="0 0 79 99" fill="none" xmlns="http://www.w3.org/2000/svg">
<path fill-rule="evenodd" clip-rule="evenodd" d="M46.7017 9.76737C45.3811 6.37644 43.5026 3.87507 41.1186 2.33234C38.8203 0.845007 36.096 0.272985 33.0006 0.617864C32.124 -0.0818734 30.9725 -0.219325 30.0881 0.371038C28.9137 1.15513 28.6484 2.92872 29.4963 4.32471C30.3444 5.72074 31.9898 6.21836 33.1642 5.43424C33.552 5.17536 33.8379 4.80753 34.0203 4.38196C37.2032 4.18796 39.6653 5.32764 41.5044 7.83594C43.9225 11.1335 45.2822 16.9259 45.334 24.1463C45.3601 27.734 45.0704 30.8326 44.7456 33L48.8699 28.7065C48.8951 28.3095 48.9181 27.911 48.936 27.5119C49.1165 23.4901 49.0665 15.836 46.7017 9.76737ZM20.8868 12.7286C19.3611 15.6326 19.305 18.4167 20.7065 21.1884C22.5488 24.8327 27.0156 28.5258 33.2838 31.5883C36.8068 33.3098 39.955 34.3909 42 34.9457L39.0245 38C37.6298 37.5433 36.1434 36.9878 34.6808 36.3709C31.1001 34.8613 24.4534 31.6194 20.1744 26.8688C17.7833 24.2147 16.4045 21.4089 16.0768 18.5292C15.7604 15.7534 16.4233 12.9593 18.0425 10.2008C17.8065 9.08613 18.1775 7.94922 19.0688 7.36667C20.2524 6.59287 21.91 7.0839 22.7649 8.46219C23.6196 9.84025 23.3525 11.5908 22.1686 12.3651C21.7776 12.6206 21.3353 12.7353 20.8868 12.7286ZM68.0113 53.1328C68.9323 54.4119 72.3061 59.0973 67.4007 64.4621C64.9329 67.1612 60.0821 72.1864 50.1992 76.3832C45.8384 78.2355 25.8994 92.8327 19.8252 99L0 84.3223C0 84.3223 22.8051 67.5128 24.7481 63.5355C25.6054 61.7802 25.8752 58.5122 26.1657 54.993C26.4105 52.027 26.6701 48.8825 27.3086 46.3147C27.9256 43.8292 29.0652 40.8602 33.4394 40.3502C35.3665 40.1258 37.2498 40.9739 38.7035 41.6284L38.7046 41.6289C39.1027 41.8082 39.4686 41.973 39.7943 42.0971L50.5209 31.2119C52.6492 29.0161 55.1018 27.9214 57.6816 30.4831C60.261 33.0448 59.3699 36.6584 59.3699 36.6584C59.3699 36.6584 61.019 36.0768 63.2005 38.3429C63.5215 38.6763 63.8027 39.0322 64.0264 39.4126C64.8418 40.7948 64.9808 42.4577 64.4381 44.3607C65.1449 44.664 66.123 45.1934 66.9563 46.0392C67.4518 46.5422 67.8423 47.1053 68.1118 47.7093C68.8047 49.2572 68.7373 51.0292 67.9067 52.9866C67.9365 53.0289 67.9716 53.0777 68.0113 53.1328ZM69.3725 73.9356C72.2897 71.9939 76.1606 72.8914 78.0186 75.9397C79.877 78.988 79.0181 83.0329 76.1012 84.9749C73.1837 86.9163 69.3128 86.0188 67.4546 82.9705C66.6 81.5682 66.322 79.9554 66.5526 78.4332C64.5236 77.3098 62.6716 76.0542 61 74.6749C62.3435 73.7809 63.545 72.8841 64.6244 72C65.8427 72.915 67.1646 73.765 68.5933 74.5477C68.8337 74.3264 69.0936 74.1209 69.3725 73.9356Z" fill="#FFC59E"/>
</svg>

<svg width="79" height="99" fill="none" xmlns="http://www.w3.org/2000/svg"><path fill-rule="evenodd" clip-rule="evenodd" d="M46.702 9.767c-1.32-3.39-3.2-5.892-5.583-7.435C38.82.845 36.096.273 33 .618c-.877-.7-2.028-.837-2.913-.247-1.174.784-1.44 2.558-.592 3.954.848 1.396 2.494 1.893 3.668 1.11a2.37 2.37 0 00.856-1.053c3.183-.194 5.645.946 7.484 3.454 2.419 3.297 3.778 9.09 3.83 16.31.026 3.588-.264 6.687-.588 8.854l4.124-4.294c.025-.396.048-.795.066-1.194.18-4.022.13-11.676-2.234-17.745zM20.887 12.73c-1.526 2.904-1.582 5.688-.18 8.46 1.842 3.644 6.309 7.337 12.577 10.4 3.523 1.72 6.671 2.802 8.716 3.357L39.025 38a56.869 56.869 0 01-4.344-1.63c-3.58-1.509-10.228-4.75-14.507-9.501-2.39-2.654-3.77-5.46-4.097-8.34-.317-2.776.346-5.57 1.965-8.328-.236-1.115.135-2.252 1.027-2.834 1.183-.774 2.841-.283 3.696 1.095s.587 3.129-.596 3.903c-.391.256-.834.37-1.282.364zM68.01 53.133c.921 1.279 4.295 5.964-.61 11.33-2.468 2.698-7.319 7.723-17.202 11.92C45.84 78.236 25.9 92.833 19.825 99L0 84.322s22.805-16.81 24.748-20.787c.857-1.755 1.127-5.023 1.418-8.542.244-2.966.504-6.11 1.143-8.678.617-2.486 1.756-5.455 6.13-5.965 1.928-.224 3.81.624 5.264 1.278h.002c.398.18.764.345 1.09.47L50.52 31.211c2.128-2.196 4.58-3.29 7.16-.729 2.58 2.562 1.689 6.175 1.689 6.175s1.649-.581 3.83 1.685c.322.333.603.69.826 1.07.816 1.382.955 3.045.412 4.948.707.303 1.685.832 2.518 1.678a5.694 5.694 0 011.156 1.67c.693 1.548.625 3.32-.205 5.278l.104.146zm1.362 20.803c2.917-1.942 6.788-1.045 8.646 2.004 1.858 3.048 1 7.093-1.918 9.035-2.917 1.941-6.788 1.044-8.646-2.004a6.76 6.76 0 01-.902-4.538A36.417 36.417 0 0161 74.675 45.405 45.405 0 0064.624 72a32.986 32.986 0 003.97 2.548c.24-.222.5-.427.779-.612z" fill="#FFC59E"/></svg>
